images/injective-logo.svg

<svg width="285" height="61" viewBox="0 0 285 61" fill="none" xmlns="http://www.w3.org/2000/svg">
<path fill-rule="evenodd" clip-rule="evenodd" d="M181.708 15.3582C183.502 15.4481 185.247 15.7879 186.884 16.5846C188.245 17.2471 189.445 18.1252 190.476 19.2222C191.944 20.7852 192.867 22.6461 193.343 24.7306L193.435 25.1808L193.599 26.1129C192.824 26.1662 192.164 25.969 191.522 25.7182C190.596 25.3563 189.786 24.8106 189.047 24.1619L188.683 23.8293C188.114 23.2885 187.515 22.7734 186.988 22.1943C186.066 21.1824 184.989 20.422 183.669 20.0648C182.996 19.8827 182.291 19.8112 181.597 19.7211C180.18 19.5371 178.804 19.7715 177.483 20.267C176.248 20.7308 175.201 21.4806 174.337 22.5049C173.499 23.4981 172.897 24.6093 172.497 25.8283C172.144 26.9038 171.889 28.0072 171.861 29.1499C171.839 30.043 171.745 30.9409 171.803 31.8287C171.921 33.6042 172.233 35.3383 173.015 36.9736C173.914 38.8508 175.237 40.2861 177.154 41.1016C177.581 41.2831 178.034 41.4069 178.494 41.5104L179.415 41.7013C179.939 41.8075 180.486 41.8574 181.022 41.8475C182.207 41.8257 183.392 41.6838 184.471 41.1759C185.131 40.8651 185.749 40.4252 186.307 39.9508C186.986 39.3746 187.563 38.6808 188.217 38.074C189.37 37.0052 190.582 36.0129 192.143 35.5889C192.364 35.5286 192.59 35.483 192.829 35.4388L193.6 35.2973L193.464 36.257C193.448 36.3534 193.431 36.4478 193.41 36.5417C193.178 37.6242 192.836 38.6726 192.327 39.6587C191.41 41.4388 190.121 42.9011 188.474 44.0375C187.004 45.0524 185.365 45.6383 183.607 45.951C182.228 46.1963 180.842 46.2152 179.463 46.1341C177.794 46.0356 176.182 45.5985 174.675 44.8511C173.754 44.3946 172.919 43.8097 172.137 43.1308C170.75 41.9252 169.707 40.4639 168.906 38.8362C168.239 37.4816 167.755 36.0478 167.569 34.5383C167.44 33.4822 167.343 32.42 167.283 31.3577C167.238 30.5657 167.218 29.7644 167.285 28.9757C167.44 27.1452 167.78 25.3487 168.483 23.6366C169.071 22.2055 169.828 20.8717 170.835 19.6979C172.614 17.6249 174.824 16.2681 177.52 15.6987C178.908 15.4057 180.303 15.2878 181.708 15.3582ZM137.56 16.0457V16.5432C137.56 22.842 137.571 29.1408 137.551 35.4396C137.547 36.9475 137.437 38.4598 136.962 39.9065C136.589 41.0425 136.028 42.0855 135.271 43.0265C134.192 44.3669 132.821 45.2435 131.185 45.7314C130.277 46.0025 129.351 46.1439 128.399 46.16C126.953 46.1843 125.531 46.0736 124.159 45.5765C123.22 45.2365 122.385 44.7353 121.614 44.0959C120.738 43.3692 120.075 42.4811 119.549 41.4947C118.975 40.4199 118.609 39.2653 118.48 38.0466L118.281 35.9059L118.585 35.8894L118.705 35.8863C120.064 35.8852 121.423 35.8962 122.782 35.878C123.076 35.874 123.193 35.9632 123.213 36.1903L123.216 36.3156C123.174 37.4723 123.422 38.5769 123.949 39.5983C124.646 40.9491 125.775 41.6596 127.305 41.7987C128.086 41.8696 128.826 41.7927 129.563 41.5675C130.471 41.2899 131.152 40.7072 131.646 39.9184C132.23 38.9862 132.564 37.964 132.608 36.8558L132.664 35.6509C132.672 35.4501 132.677 35.2493 132.677 35.0485L132.675 25.4121C132.677 23.8061 132.682 22.2001 132.694 20.5941C132.704 19.2137 133.353 18.0802 134.415 17.1875C135.087 16.6217 135.844 16.2538 136.718 16.1383L137.257 16.0775C137.352 16.0676 137.453 16.0573 137.56 16.0457ZM96.0375 16.0717C96.2718 16.0702 96.4045 16.142 96.519 16.3547L98.1351 19.3397L101.028 24.6417L107.976 37.3426V16.0935C108.739 16.0201 109.4 16.2243 110.036 16.5389C111.467 17.2477 112.279 18.423 112.57 19.9698C112.639 20.3329 112.649 20.7111 112.649 21.0824L112.652 45.0043C112.652 45.4436 112.652 45.4926 112.302 45.4981L112.154 45.4988C110.758 45.4989 109.362 45.4854 107.967 45.5096C107.653 45.5148 107.475 45.4032 107.341 45.1558L104.616 40.1269L101.618 34.647L98.7468 29.4188L96.2933 24.8812L95.9017 24.2108V45.0196C95.9017 45.4451 95.9014 45.4927 95.5666 45.4981L91.2614 45.4988V16.0975L91.559 16.0771L96.0375 16.0717ZM260.004 16.1088L260.813 16.0159L259.885 18.8268L251.729 43.3936C251.523 44.0142 251.302 44.6305 251.118 45.2572C251.06 45.4536 250.975 45.5018 250.793 45.5011C249.422 45.4969 248.05 45.4925 246.679 45.5046C246.422 45.5068 246.356 45.3663 246.291 45.172L244.132 38.647L238.412 21.426L236.728 16.3129L236.676 16.0913C237.499 16.0199 238.271 16.185 239.011 16.4534C240.016 16.8189 240.922 17.3665 241.687 18.1315C242.568 19.0126 243.147 20.0711 243.525 21.2445L244.077 22.9909L247.02 32.4144C247.554 34.1216 248.089 35.8286 248.625 37.5351L248.652 37.6018L248.735 37.7725L249.79 34.385L251.797 28.01C252.425 26.0058 253.056 24.0024 253.668 21.9933C253.971 21.0017 254.293 20.0243 254.893 19.1629C255.969 17.6195 257.431 16.646 259.257 16.2285C259.5 16.1732 259.747 16.1388 260.004 16.1088ZM83.7161 16.0816L84.2492 16.0969V45.0145C84.2492 45.4447 84.2489 45.4927 83.9183 45.4981L83.7783 45.4988C82.4315 45.4989 81.0848 45.4916 79.7382 45.5047C79.4487 45.5075 79.3641 45.4175 79.3643 45.1295C79.371 36.9765 79.3576 28.8232 79.3841 20.6701C79.3876 19.5786 79.8273 18.5969 80.5611 17.7508C81.3443 16.8479 82.3265 16.3285 83.4781 16.1034L83.7161 16.0816ZM283.922 16.1045C284.019 16.6874 283.832 17.2325 283.608 17.7523C282.992 19.1881 281.853 20.0003 280.366 20.366L280.259 20.3791L280.039 20.3729L271.801 20.373V28.6626H283.936V33.0254H271.808V41.1153H283.916V45.4825L283.574 45.4983L267.333 45.5034C267.046 45.5034 266.896 45.471 266.896 45.118C266.905 35.5168 266.903 25.9155 266.904 16.3144L266.913 16.1045H283.922ZM230.463 16.0199V45.4866H225.661L225.649 35.7911L225.655 27.5199L225.65 24.4976L225.653 21.4753C225.657 20.6754 225.65 19.8712 225.977 19.1078C226.605 17.6418 227.688 16.6883 229.203 16.2314L229.605 16.1399L230.463 16.0199ZM219.472 16.0759V20.5809H210.92V45.4822H206.104V20.5967H197.583C197.507 19.5567 197.835 18.6757 198.421 17.8966C199.069 17.0335 199.934 16.4549 200.989 16.192C201.265 16.1234 201.555 16.0812 201.838 16.0809L219.472 16.0759ZM161.079 16.0993C161.113 17.0287 160.803 17.8399 160.289 18.5737C159.597 19.562 158.613 20.1139 157.448 20.3634C157.343 20.3857 157.23 20.3727 157.121 20.3727L148.945 20.373V28.6754H161.055V33.0376H148.94V41.1138H161.06V45.4803H144.141V16.0993H161.079Z" fill="white"/>
<path d="M7.69497 10.6397C8.06757 10.1714 8.46237 9.72083 8.85717 9.27023C8.87487 9.24788 8.91492 9.24338 8.93262 9.22103C8.96817 9.17648 9.02592 9.14963 9.06132 9.10493L9.09687 9.06038C9.37212 8.80598 9.66492 8.52908 10.0026 8.28788C11.1972 7.38098 12.4369 6.69203 13.7442 6.23873C17.9371 4.76663 22.6045 5.67383 26.2647 9.12923C31.3753 13.9198 30.9177 21.6371 26.838 26.7665C21.6826 34.4132 12.823 45.0817 25.0899 54.6385C27.2955 56.3569 28.9317 57.7737 35.8792 59.7814C31.3354 60.6184 27.1222 60.358 22.4326 59.1603C19.1155 57.288 13.9003 53.2791 12.126 47.8645C9.44427 39.6538 16.8474 27.3793 20.4252 22.6519C25.3374 16.1093 17.389 9.02678 11.5372 16.9337C8.47842 21.0544 3.12702 32.7149 4.98672 41.3643C6.07407 46.2691 7.52337 49.8444 13.2699 54.7557C12.2043 54.1269 11.1694 53.4136 10.1656 52.6156C-3.18604 40.1785 -1.63702 20.9483 7.69497 10.6397Z" fill="white"/>
<path d="M53.1457 49.8993C52.7731 50.3676 52.3783 50.8182 51.9835 51.2688C51.9658 51.2912 51.9257 51.2957 51.908 51.318C51.8725 51.3626 51.8147 51.3894 51.7793 51.4341L51.7438 51.4787C51.4685 51.7331 51.1757 52.01 50.8381 52.2512C49.6435 53.1581 48.4037 53.847 47.0965 54.3003C42.9035 55.7724 38.2361 54.8652 34.576 51.4098C29.4653 46.6193 29.923 38.9019 34.0027 33.7725C39.158 26.1258 48.0176 15.4573 35.7508 5.90054C33.5452 4.18214 31.909 2.76539 24.9614 0.75764C29.5052 -0.0794205 33.7184 0.180965 38.4079 1.37879C41.7251 3.25109 46.9403 7.25999 48.7147 12.6745C51.3964 20.8853 43.9933 33.1598 40.4155 37.8872C35.5033 44.4297 43.4516 51.5123 49.3034 43.6053C52.3622 39.4847 57.7136 27.8241 55.8539 19.1748C54.7666 14.2699 53.3173 10.6947 47.5708 5.78339C48.6364 6.41219 49.6712 7.12544 50.675 7.92344C64.0267 20.3605 62.4776 39.5907 53.1457 49.8993Z" fill="white"/>
</svg>

<svg xmlns="http://www.w3.org/2000/svg" width="285" height="61" fill="none"><path fill="#fff" fill-rule="evenodd" d="M181.708 15.358c1.794.09 3.539.43 5.176 1.227a12.237 12.237 0 0 1 3.592 2.637c1.468 1.563 2.391 3.424 2.867 5.509l.092.45.164.932c-.775.053-1.435-.144-2.077-.395-.926-.362-1.736-.907-2.475-1.556l-.364-.333c-.569-.54-1.168-1.056-1.695-1.635-.922-1.012-1.999-1.772-3.319-2.13-.673-.181-1.378-.253-2.072-.343-1.417-.184-2.793.05-4.114.546a7.522 7.522 0 0 0-3.146 2.238 9.858 9.858 0 0 0-1.84 3.323c-.353 1.076-.608 2.18-.636 3.322-.022.893-.116 1.79-.058 2.679.118 1.775.43 3.51 1.212 5.145.899 1.877 2.222 3.312 4.139 4.128.427.181.88.305 1.34.408l.921.191a7.459 7.459 0 0 0 1.607.146c1.185-.021 2.37-.163 3.449-.671.66-.31 1.278-.75 1.836-1.225.679-.576 1.256-1.27 1.91-1.877 1.153-1.069 2.365-2.061 3.926-2.485.221-.06.447-.106.686-.15l.771-.142-.136.96c-.016.096-.033.19-.054.285-.232 1.082-.574 2.13-1.083 3.117a11.834 11.834 0 0 1-3.853 4.379c-1.47 1.014-3.109 1.6-4.867 1.913-1.379.245-2.765.264-4.144.183a12.373 12.373 0 0 1-4.788-1.283 12.006 12.006 0 0 1-2.538-1.72c-1.387-1.206-2.43-2.667-3.231-4.295-.667-1.354-1.151-2.788-1.337-4.298a49.081 49.081 0 0 1-.286-3.18c-.045-.792-.065-1.594.002-2.382.155-1.83.495-3.627 1.198-5.34.588-1.43 1.345-2.764 2.352-3.938 1.779-2.073 3.989-3.43 6.685-4a16.255 16.255 0 0 1 4.188-.34Zm-44.148.688v.497c0 6.299.011 12.598-.009 18.897-.004 1.508-.114 3.02-.589 4.467a9.832 9.832 0 0 1-1.691 3.12c-1.079 1.34-2.45 2.216-4.086 2.704-.908.271-1.834.413-2.786.429-1.446.024-2.868-.086-4.24-.583a8.483 8.483 0 0 1-2.545-1.481c-.876-.727-1.539-1.615-2.065-2.601a9.377 9.377 0 0 1-1.069-3.448l-.199-2.141.304-.017.12-.003c1.359 0 2.718.01 4.077-.008.294-.004.411.085.431.312l.003.126a6.558 6.558 0 0 0 .733 3.282c.697 1.351 1.826 2.062 3.356 2.2a5.799 5.799 0 0 0 2.258-.23c.908-.278 1.589-.86 2.083-1.65a6.155 6.155 0 0 0 .962-3.062l.056-1.205c.008-.2.013-.402.013-.603l-.002-9.636c.002-1.606.007-3.212.019-4.818.01-1.38.659-2.514 1.721-3.407.672-.565 1.429-.933 2.303-1.049l.539-.06.303-.032Zm-41.523.026c.235-.002.367.07.482.283l1.616 2.985 2.893 5.302 6.948 12.7V16.095c.763-.074 1.424.13 2.06.445 1.431.709 2.243 1.884 2.534 3.43.069.364.079.742.079 1.113l.003 23.922c0 .44 0 .489-.35.494h-.148c-1.396 0-2.792-.013-4.187.012-.314.005-.492-.107-.626-.354l-2.725-5.03-2.998-5.479-2.871-5.228-2.454-4.538-.391-.67V45.02c0 .425 0 .473-.335.478H91.26v-29.4l.298-.02 4.478-.006Zm163.967.037.809-.093-.928 2.81-8.156 24.568c-.206.62-.427 1.236-.611 1.863-.058.197-.143.245-.325.244-1.371-.004-2.743-.008-4.114.004-.257.002-.323-.139-.388-.333l-2.159-6.525-5.72-17.221-1.684-5.113-.052-.222c.823-.071 1.595.094 2.335.362a7.225 7.225 0 0 1 2.676 1.678c.881.882 1.46 1.94 1.838 3.113l.552 1.747 2.943 9.423a4532.6 4532.6 0 0 0 1.605 5.121l.027.067.083.17 1.055-3.387 2.007-6.375c.628-2.004 1.259-4.008 1.871-6.017.303-.991.625-1.969 1.225-2.83 1.076-1.544 2.538-2.517 4.364-2.934.243-.056.49-.09.747-.12Zm-176.288-.027.533.015v28.917c0 .43 0 .479-.33.484h-.14c-1.347 0-2.694-.006-4.04.007-.29.002-.375-.088-.375-.376.007-8.152-.006-16.306.02-24.459.004-1.091.443-2.073 1.177-2.92.783-.902 1.765-1.422 2.917-1.647l.238-.021Zm200.206.023c.097.582-.09 1.128-.314 1.647-.616 1.436-1.755 2.248-3.242 2.614l-.107.013-.22-.006h-8.238v8.29h12.135v4.362h-12.128v8.09h12.108v4.367l-.342.016-16.241.005c-.287 0-.437-.032-.437-.385.009-9.601.007-19.203.008-28.804l.009-.21h17.009Zm-53.459-.085v29.467h-4.802l-.012-9.696.006-8.271-.005-3.022.003-3.023c.004-.8-.003-1.604.324-2.367.628-1.466 1.711-2.42 3.226-2.877l.402-.091.858-.12Zm-10.991.056v4.505h-8.552v24.901h-4.816V20.597h-8.521c-.076-1.04.252-1.921.838-2.7a4.503 4.503 0 0 1 2.568-1.705c.276-.069.566-.11.849-.111l17.634-.005Zm-58.393.023c.034.93-.276 1.74-.79 2.475-.692.988-1.676 1.54-2.841 1.79-.105.022-.218.009-.327.009h-8.176v8.302h12.11v4.363H148.94v8.076h12.12v4.366h-16.919V16.1h16.938Z" clip-rule="evenodd"/><path fill="#fff" d="M7.695 10.64c.373-.469.767-.92 1.162-1.37.018-.022.058-.027.076-.049.035-.045.093-.071.128-.116l.036-.045c.275-.254.568-.53.906-.772 1.194-.907 2.434-1.596 3.741-2.05 4.193-1.471 8.86-.564 12.52 2.891 5.111 4.79 4.654 12.508.574 17.638-5.155 7.646-14.015 18.315-1.748 27.872 2.206 1.718 3.842 3.135 10.79 5.142-4.545.837-8.758.577-13.447-.62-3.317-1.873-8.533-5.882-10.307-11.297-2.682-8.21 4.721-20.485 8.3-25.212 4.911-6.543-3.037-13.625-8.889-5.718-3.059 4.12-8.41 15.78-6.55 24.43 1.087 4.905 2.536 8.48 8.283 13.392a27.206 27.206 0 0 1-3.104-2.14C-3.186 40.178-1.637 20.948 7.695 10.64Z"/><path fill="#fff" d="M53.146 49.9a37.9 37.9 0 0 1-1.163 1.369c-.017.022-.057.027-.075.049-.035.045-.093.071-.129.116l-.035.045c-.276.254-.568.531-.906.772-1.194.907-2.434 1.596-3.742 2.05-4.192 1.471-8.86.564-12.52-2.891-5.11-4.79-4.653-12.508-.573-17.637C39.158 26.126 48.018 15.457 35.75 5.9 33.545 4.182 31.909 2.765 24.96.758c4.544-.837 8.757-.577 13.447.62 3.317 1.873 8.532 5.882 10.307 11.296 2.681 8.211-4.722 20.486-8.3 25.213-4.912 6.543 3.037 13.625 8.888 5.718 3.06-4.12 8.41-15.78 6.55-24.43-1.086-4.905-2.536-8.48-8.282-13.392 1.065.63 2.1 1.342 3.104 2.14 13.352 12.438 11.803 31.668 2.47 41.976Z"/></svg>
